svg/hydraulic_oil_level.svg

<svg xmlns="http://www.w3.org/2000/svg" viewBox="0 0 24 24"><path d="M15 18c-1.66 0-3-1.34-3-3 0-2 3-5.37 3-5.37S18 13 18 15c0 1.66-1.34 3-3 3m5-14v16H10V4H8v16c0 1.11.89 2 2 2h10c1.11 0 2-.89 2-2V4zM2 19l5-5-5-5zM16 6V2h-2v4h-3v2h8V6z"/></svg>

<?xml version="1.0" encoding="UTF-8"?><!DOCTYPE svg PUBLIC "-//W3C//DTD SVG 1.1//EN" "http://www.w3.org/Graphics/SVG/1.1/DTD/svg11.dtd"><svg xmlns="http://www.w3.org/2000/svg" xmlns:xlink="http://www.w3.org/1999/xlink" version="1.1" id="mdi-hydraulic-oil-level" width="24" height="24" viewBox="0 0 24 24"><path d="M15 18C13.34 18 12 16.66 12 15C12 13 15 9.63 15 9.63S18 13 18 15C18 16.66 16.66 18 15 18M20 4V20H10V4H8V20C8 21.11 8.89 22 10 22H20C21.11 22 22 21.11 22 20V4H20M2 19L7 14L2 9V19M16 6V2H14V6H11V8H19V6H16Z" /></svg>
